!!!OTL@@DE: Handwerksburschen-Abschied
!!!ONB: Volksweise
!!!OMD: Marschm&auml;ssig
!!!ONB: Volkslied (Nach f. Bl&auml;ttern des 18. Jahrh.)
!!!OCL: Erk, Ludwig
!!!GCO: Deutscher Liederschatz, Band 1
**kern	**kern	**kern
*staff3	*staff2	*staff1
*Ipiano	*Ipiano	*Ivox
*>[A,A1,A,A2,B]	*>[A,A1,A,A2,B]	*>[A,A1,A,A2,B]
*>norep[A,A2,B]	*>norep[A,A2,B]	*>norep[A,A2,B]
*>A	*>A	*>A
=1-	=1-	=1-
*clefF4	*clefG2	*clefG2
*k[f#]	*k[f#]	*k[f#]
*G:	*G:	*G:
*met(C)	*met(C)	*met(C)
*M4/4	*M4/4	*M4/4
*MM120	*MM120	*MM120
2G\	2d/ 2g/ 2b/	2b\
2D\	2c/ 2f#/ 2a/	2a/
=2	=2	=2
4GG/	4B/ 4d/ 4g/	4g/
4G\	8d/ 8f#/L	8f#/L
.	8c/ 8e/J	8e/J
4G\	4B/ 4d/	4d/
8D/L	4d/	4d/
8C/J	.	.
=3	=3	=3
4BB/	4d/ 4g/	4g/
4BB/	4d/ 4g/	4g/
4D\	4d/ 4f#/ 4a/	4a/
4D\	4d/ 4f#/ 4a/	4a/
=4	=4	=4
*>A1	*>A1	*>A1
4G\	2d/ 2g/ 2b/	2b\
4D\	.	.
4GG/	2r	2r
4r	.	.
=5:|!	=5:|!	=5:|!
*>A2	*>A2	*>A2
4G\	2d/ 2g/ 2b/	2b\
4D\	.	.
4GG/	4r	4r
4r	(8g/L	(8g/L
.	8f#/) 8a/J	8a/J)
=6	=6	=6
*>B	*>B	*>B
4GG/	4g/ 4b/	4b\
4r	4g/ 4b/	4b\
4G\	4g/ 4b/	4b\
4r	(8a/ 8cc/L	(8cc\L
.	8g/) 8b/J	8b\J)
=7	=7	=7
4D\	4f#/ 4a/	4a/
4r	4f#/ 4a/	4a/
4DD/	4f#/ 4a/	4a/
4r	(8g/ 8b/L	8b/L
.	8f#/) 8a/J	8a/J
=8	=8	=8
4EE/	4e/ 4g/	4g/
4BB/	4e/ 4g/	4g/
4E\	4e/ 4g/	4g/
4EE/	(8f#/ 8a/L	8a/L
.	8e/) 8g/J	8g/J
=9	=9	=9
4BB/	4d#/ 4f#/	4f#/
4r	4d#/ 4f#/	4f#/
4BB/	4d#/ 4f#/	4f#/
4AA/	4c/ 4dn/	4d/
=10	=10	=10
4GG/	4B/ 4d/ 4g/	4g/
4r	4B/ 4d/ 4g/	4g/
4D\	4d/ 4f#/ 4a/	4a/
4r	4d/ 4f#/ 4a/	4a/
=11	=11	=11
*	*^	*
(4.G\	(4.b/	2.d\ 2.g\	(4.b\
8A\	8cc/	.	8cc\)
4B\)	4dd/)	.	8dd\L
.	.	.	8cc\J
4BB/	4g/ 4b/	4d\	4b\
*	*v	*v	*
=12	=12	=12
(2DD/ [2D/	2c/ 2f#/ (2a/	2a/
4GG/) 4D/]	&(4B/&) 4g/)	4g/
4r	4r	4r
==	==	==
*-	*-	*-
!!!ENC: Craig Stuart Sapp
!!!END: 2004/05/26/
!!!EFL: 037/651
